assets/01_base/Base_6.svg

<svg xmlns="http://www.w3.org/2000/svg" width="500" height="500" fill="none" viewBox="0 0 500 500"><g clip-path="url(#Base_6_svg_clip0_65_191)"><path fill="#319ed7" d="M378.66 251.299c0-.275.016-.533.016-.807s-.016-.532-.016-.807C435.718 243.039 480 194.579 480 135.746 480 72.38 428.62 21 365.238 21c-58.833 0-107.293 44.282-113.939 101.34-.275 0-.533-.016-.807-.016s-.532.016-.807.016C243.039 65.282 194.579 21 135.746 21 72.38 21 21 72.38 21 135.746c0 58.833 44.282 107.293 101.34 113.939 0 .275-.016.533-.016.807s.016.532.016.807C65.282 257.945 21 306.405 21 365.238c0 63.366 51.38 114.746 114.746 114.746 58.833 0 107.293-44.282 113.939-101.341.275 0 .533.017.807.017s.532-.017.807-.017c6.646 57.059 55.106 101.341 113.939 101.341 63.366 0 114.746-51.38 114.746-114.746 0-58.833-44.282-107.293-101.341-113.939z"/><path fill="#b1ffa1" d="M347.251 251.105v-1.226c43.072-5.017 76.497-41.604 76.497-86.015 0-47.847-38.781-86.628-86.628-86.628-44.411 0-80.998 33.441-86.015 76.497h-1.226c-5.017-43.072-41.604-76.497-86.015-76.497-47.847 0-86.628 38.781-86.628 86.628 0 44.411 33.441 80.998 76.497 86.015v1.226c-43.072 5.017-76.497 41.604-76.497 86.015 0 47.847 38.781 86.628 86.628 86.628 44.411 0 80.998-33.441 86.015-76.497h1.226c5.017 43.072 41.604 76.497 86.015 76.497 47.847 0 86.628-38.781 86.628-86.628 0-44.411-33.441-80.998-76.497-86.015"/></g><defs><clipPath id="Base_6_svg_clip0_65_191"><rect width="459" height="459" fill="#fff" transform="translate(21 21)"/></clipPath></defs></svg>

<svg width="500" height="500" viewBox="0 0 500 500" fill="none" xmlns="http://www.w3.org/2000/svg">
<g clip-path="url(#clip0_65_191)">
<path d="M378.66 251.299C378.66 251.024 378.676 250.766 378.676 250.492C378.676 250.218 378.66 249.96 378.66 249.685C435.718 243.039 480 194.579 480 135.746C480 72.38 428.62 21 365.238 21C306.405 21 257.945 65.282 251.299 122.34C251.024 122.34 250.766 122.324 250.492 122.324C250.218 122.324 249.96 122.34 249.685 122.34C243.039 65.282 194.579 21 135.746 21C72.38 21 21 72.38 21 135.746C21 194.579 65.282 243.039 122.34 249.685C122.34 249.96 122.324 250.218 122.324 250.492C122.324 250.766 122.34 251.024 122.34 251.299C65.282 257.945 21 306.405 21 365.238C21 428.604 72.38 479.984 135.746 479.984C194.579 479.984 243.039 435.702 249.685 378.643C249.96 378.643 250.218 378.66 250.492 378.66C250.766 378.66 251.024 378.643 251.299 378.643C257.945 435.702 306.405 479.984 365.238 479.984C428.604 479.984 479.984 428.604 479.984 365.238C479.984 306.405 435.702 257.945 378.643 251.299H378.66Z" fill="#319ED7"/>
<path d="M347.251 251.105C347.251 250.895 347.251 250.702 347.251 250.492C347.251 250.282 347.251 250.089 347.251 249.879C390.323 244.862 423.748 208.275 423.748 163.864C423.748 116.017 384.967 77.2357 337.12 77.2357C292.709 77.2357 256.122 110.677 251.105 153.733C250.895 153.733 250.702 153.733 250.492 153.733C250.282 153.733 250.089 153.733 249.879 153.733C244.862 110.661 208.275 77.2357 163.864 77.2357C116.017 77.2357 77.2358 116.017 77.2358 163.864C77.2358 208.275 110.677 244.862 153.733 249.879C153.733 250.089 153.733 250.282 153.733 250.492C153.733 250.702 153.733 250.895 153.733 251.105C110.661 256.122 77.2358 292.709 77.2358 337.12C77.2358 384.967 116.017 423.748 163.864 423.748C208.275 423.748 244.862 390.307 249.879 347.251C250.089 347.251 250.282 347.251 250.492 347.251C250.702 347.251 250.895 347.251 251.105 347.251C256.122 390.323 292.709 423.748 337.12 423.748C384.967 423.748 423.748 384.967 423.748 337.12C423.748 292.709 390.307 256.122 347.251 251.105Z" fill="#B1FFA1"/>
</g>
<defs>
<clipPath id="clip0_65_191">
<rect width="459" height="459" fill="white" transform="translate(21 21)"/>
</clipPath>
</defs>
</svg>
